icons/moon-clear-line.svg

<svg xmlns="http://www.w3.org/2000/svg" width="24" height="24" fill="none"><g clip-path="url(#a)"><g><path fill="#121212" d="M10 6C9.99965 7.40007 10.3667 8.77571 11.0646 9.98947C11.7624 11.2032 12.7666 12.2126 13.9767 12.9167C15.1868 13.6208 16.5605 13.995 17.9606 14.0019C19.3606 14.0088 20.738 13.6482 21.955 12.956C21.474 18.03 17.2 22 12 22C6.477 22 2 17.523 2 12C2 6.8 5.97 2.526 11.044 2.045C10.3576 3.24994 9.99768 4.61325 10 6ZM4 12C4 14.1217 4.84285 16.1566 6.34315 17.6569C7.84344 19.1571 9.87827 20 12 20C13.4135 19.9999 14.8017 19.6256 16.0237 18.9151C17.2456 18.2047 18.2577 17.1834 18.957 15.955C18.641 15.985 18.321 16 18 16C12.477 16 8 11.523 8 6C8 5.679 8.015 5.36 8.045 5.043C6.81664 5.74232 5.79533 6.75439 5.08486 7.97633C4.37438 9.19827 4.00008 10.5865 4 12ZM18.164 2.291L19 2.5V3.5L18.164 3.709C17.8124 3.79693 17.4913 3.97875 17.235 4.23503C16.9788 4.4913 16.7969 4.8124 16.709 5.164L16.5 6H15.5L15.291 5.164C15.2031 4.8124 15.0212 4.4913 14.765 4.23503C14.5087 3.97875 14.1876 3.79693 13.836 3.709L13 3.5V2.5L13.836 2.291C14.1874 2.20291 14.5083 2.02102 14.7644 1.76475C15.0205 1.50849 15.2021 1.18748 15.29 0.836L15.5 0H16.5L16.709 0.836C16.7969 1.1876 16.9788 1.5087 17.235 1.76497C17.4913 2.02125 17.8124 2.20307 18.164 2.291ZM23.164 7.291L24 7.5V8.5L23.164 8.709C22.8124 8.79693 22.4913 8.97875 22.235 9.23503C21.9788 9.4913 21.7969 9.8124 21.709 10.164L21.5 11H20.5L20.291 10.164C20.2031 9.8124 20.0212 9.4913 19.765 9.23503C19.5087 8.97875 19.1876 8.79693 18.836 8.709L18 8.5V7.5L18.836 7.291C19.1876 7.20307 19.5087 7.02125 19.765 6.76497C20.0212 6.5087 20.2031 6.1876 20.291 5.836L20.5 5H21.5L21.709 5.836C21.7969 6.1876 21.9788 6.5087 22.235 6.76497C22.4913 7.02125 22.8124 7.20307 23.164 7.291Z"/></g></g><defs><clipPath id="a"><rect width="24" height="24" fill="white"/></clipPath></defs></svg>

<svg width="24" height="24" fill="none" xmlns="http://www.w3.org/2000/svg"><g clip-path="url(#a)"><path d="M10 6a8 8 0 0 0 11.955 6.956C21.474 18.03 17.2 22 12 22 6.477 22 2 17.523 2 12c0-5.2 3.97-9.474 9.044-9.955A7.963 7.963 0 0 0 10 6Zm-6 6a8 8 0 0 0 14.957 3.955c-.316.03-.636.045-.957.045-5.523 0-10-4.477-10-10 0-.321.015-.64.045-.957A8.006 8.006 0 0 0 4 12Zm14.164-9.709L19 2.5v1l-.836.209a2 2 0 0 0-1.455 1.455L16.5 6h-1l-.209-.836a2 2 0 0 0-1.455-1.455L13 3.5v-1l.836-.209A2 2 0 0 0 15.29.836L15.5 0h1l.209.836a2 2 0 0 0 1.455 1.455Zm5 5L24 7.5v1l-.836.209a2 2 0 0 0-1.455 1.455L21.5 11h-1l-.209-.836a2 2 0 0 0-1.455-1.455L18 8.5v-1l.836-.209a2 2 0 0 0 1.455-1.455L20.5 5h1l.209.836a2 2 0 0 0 1.455 1.455Z" /></g><defs><clipPath id="a"><path fill="#fff" d="M0 0h24v24H0z"/></clipPath></defs></svg>
